lib/svgs/team-notebook.svg

<?xml version="1.0" encoding="UTF-8" standalone="no"?>
<svg width="20px" height="20px" viewBox="0 0 20 20" version="1.1" xmlns="http://www.w3.org/2000/svg" xmlns:xlink="http://www.w3.org/1999/xlink">
    <defs></defs>
    <g id="Icons" stroke="none" stroke-width="1" fill="none" fill-rule="evenodd">
        <g id="Web" transform="translate(-241.000000, -2442.000000)" fill="#000000">
            <g id="team/team-notebook" transform="translate(241.000000, 2442.000000)">
                <path d="M15.875,3 L4.625,3 C4.25,3 4,3.25 4,3.625 L4,17.375 C4,17.75 4.25,18 4.625,18 L15.875,18 C16.25,18 16.5,17.75 16.5,17.375 L16.5,3.625 C16.5,3.25 16.25,3 15.875,3 L15.875,3 L15.875,3 M7.125,13 C7.125,11.9375 7.9375,11.125 9,11.125 L11.5,11.125 C12.5625,11.125 13.375,11.9375 13.375,13 L7.125,13 L7.125,13 L7.125,13 M9,8.625 C9,7.9375 9.5625,7.375 10.25,7.375 C10.9375,7.375 11.5,7.9375 11.5,8.625 L11.5,9.25 C11.5,9.9375 10.9375,10.5 10.25,10.5 C9.5625,10.5 9,9.9375 9,9.25 L9,8.625 L9,8.625 L9,8.625" id="Shape"></path>
            </g>
        </g>
    </g>
</svg>

<svg xmlns="http://www.w3.org/2000/svg" viewBox="0 0 20 20">
    <path fill="#000" fill-rule="evenodd" d="M15.875 3H4.625C4.25 3 4 3.25 4 3.625v13.75c0 .375.25.625.625.625h11.25c.375 0 .625-.25.625-.625V3.625c0-.375-.25-.625-.625-.625m-8.75 10c0-1.063.813-1.875 1.875-1.875h2.5c1.063 0 1.875.813 1.875 1.875h-6.25M9 8.625c0-.688.563-1.25 1.25-1.25.688 0 1.25.563 1.25 1.25v.625c0 .688-.563 1.25-1.25 1.25C9.562 10.5 9 9.937 9 9.25v-.625"/>
</svg>
